public/img/logo.svg

<svg width="88" height="33" viewBox="0 0 88 33" fill="none" xmlns="http://www.w3.org/2000/svg">
<path fill-rule="evenodd" clip-rule="evenodd" d="M76.598 0.133238C79.9095 -0.340223 82.9376 0.455982 85.0011 2.39677C86.8886 4.17202 87.8407 6.68634 87.6132 9.29547C87.1826 14.2271 84.7769 18.1785 78.0791 24.6887L67.1173 25.0466C67.1173 25.0466 74.753 18.147 77.6249 14.7759C79.4857 12.5915 80.2739 10.2334 79.5096 8.66172C79.0253 7.66569 77.9378 7.16999 76.598 7.24411V0.133238ZM54.1355 4.04339V10.4544L63.6562 9.41268V2.71226L54.1355 4.04339ZM46.3818 33V5.12756L52.9148 4.21399V33H46.3818ZM20.5751 8.74393V14.1333L27.7715 13.346V7.73802L20.5751 8.74393ZM14.6629 32.9998V9.57078L19.6465 8.87402V32.9998H14.6629ZM0 11.6207V16.385L12.9185 14.9711V9.81492L0 11.6207ZM4.12199 16.6746V32.9999H8.85192V16.1944L4.12199 16.6746ZM20.5751 23.6333V18.1447L25.2994 17.7408V23.3766L20.5751 23.6333ZM20.575 27.5882V32.9998H27.7714V27.3724L20.575 27.5882ZM54.1355 21.8065V15.2766L60.3761 14.7445V21.4674L54.1355 21.8065ZM54.1354 26.5792V32.9998H63.6561V26.2936L54.1354 26.5792ZM29.6754 32.9999V7.47161L35.3521 6.67787V32.9999H29.6754ZM36.4117 27.1129V32.9998H44.6524V26.8655L36.4117 27.1129ZM88 32.9999V25.5588L65.765 26.109V32.9999H88ZM66.0548 14.1029C65.6888 6.38889 68.8606 1.66076 75.3197 0.292881L75.3237 7.53501C73.968 8.10329 72.6282 9.137 72.942 13.4951L66.0548 14.1029Z" fill="white"/>
<mask id="mask0_3905_557" style="mask-type:luminance" maskUnits="userSpaceOnUse" x="0" y="0" width="88" height="33">
<path fill-rule="evenodd" clip-rule="evenodd" d="M76.598 0.133238C79.9095 -0.340223 82.9376 0.455982 85.0011 2.39677C86.8886 4.17202 87.8407 6.68634 87.6132 9.29547C87.1826 14.2271 84.7769 18.1785 78.0791 24.6887L67.1173 25.0466C67.1173 25.0466 74.753 18.147 77.6249 14.7759C79.4857 12.5915 80.2739 10.2334 79.5096 8.66172C79.0253 7.66569 77.9378 7.16999 76.598 7.24411V0.133238ZM54.1355 4.04339V10.4544L63.6562 9.41268V2.71226L54.1355 4.04339ZM46.3818 33V5.12756L52.9148 4.21399V33H46.3818ZM20.5751 8.74393V14.1333L27.7715 13.346V7.73802L20.5751 8.74393ZM14.6629 32.9998V9.57078L19.6465 8.87402V32.9998H14.6629ZM0 11.6207V16.385L12.9185 14.9711V9.81492L0 11.6207ZM4.12199 16.6746V32.9999H8.85192V16.1944L4.12199 16.6746ZM20.5751 23.6333V18.1447L25.2994 17.7408V23.3766L20.5751 23.6333ZM20.575 27.5882V32.9998H27.7714V27.3724L20.575 27.5882ZM54.1355 21.8065V15.2766L60.3761 14.7445V21.4674L54.1355 21.8065ZM54.1354 26.5792V32.9998H63.6561V26.2936L54.1354 26.5792ZM29.6754 32.9999V7.47161L35.3521 6.67787V32.9999H29.6754ZM36.4117 27.1129V32.9998H44.6524V26.8655L36.4117 27.1129ZM88 32.9999V25.5588L65.765 26.109V32.9999H88ZM66.0548 14.1029C65.6888 6.38889 68.8606 1.66076 75.3197 0.292881L75.3237 7.53501C73.968 8.10329 72.6282 9.137 72.942 13.4951L66.0548 14.1029Z" fill="white"/>
</mask>
<g mask="url(#mask0_3905_557)">
</g>
</svg>

<svg width="88" height="33" fill="none" xmlns="http://www.w3.org/2000/svg"><path fill-rule="evenodd" clip-rule="evenodd" d="M76.598.133c3.311-.473 6.34.323 8.403 2.264 1.888 1.775 2.84 4.29 2.612 6.898-.43 4.932-2.836 8.883-9.534 15.394l-10.962.358s7.636-6.9 10.508-10.271c1.86-2.184 2.649-4.543 1.885-6.114-.485-.996-1.572-1.492-2.912-1.418V.134Zm-22.462 3.91v6.411l9.52-1.041v-6.7l-9.52 1.33ZM46.382 33V5.128l6.533-.914V33h-6.533ZM20.575 8.744v5.39l7.197-.788V7.738l-7.197 1.006ZM14.663 33V9.57l4.983-.696V33h-4.983ZM0 11.62v4.765l12.918-1.414V9.815L0 11.62Zm4.122 5.055V33h4.73V16.194l-4.73.48Zm16.453 6.958v-5.488l4.724-.404v5.636l-4.724.256Zm0 3.955V33h7.196v-5.628l-7.196.216Zm33.56-5.782v-6.53l6.241-.531v6.722l-6.24.34Zm0 4.773V33h9.521v-6.705l-9.52.285ZM29.675 33V7.473l5.677-.794V33h-5.677Zm6.737-5.886V33h8.24v-6.134l-8.24.247ZM88 33v-7.441l-22.235.55v6.89H88ZM66.055 14.103C65.689 6.389 68.86 1.66 75.32.293l.004 7.242c-1.356.568-2.696 1.602-2.382 5.96l-6.887.608Z" fill="#fff"/><mask id="a" style="mask-type:luminance" maskUnits="userSpaceOnUse" x="0" y="0" width="88" height="33"><path fill-rule="evenodd" clip-rule="evenodd" d="M76.598.133c3.311-.473 6.34.323 8.403 2.264 1.888 1.775 2.84 4.29 2.612 6.898-.43 4.932-2.836 8.883-9.534 15.394l-10.962.358s7.636-6.9 10.508-10.271c1.86-2.184 2.649-4.543 1.885-6.114-.485-.996-1.572-1.492-2.912-1.418V.134Zm-22.462 3.91v6.411l9.52-1.041v-6.7l-9.52 1.33ZM46.382 33V5.128l6.533-.914V33h-6.533ZM20.575 8.744v5.39l7.197-.788V7.738l-7.197 1.006ZM14.663 33V9.57l4.983-.696V33h-4.983ZM0 11.62v4.765l12.918-1.414V9.815L0 11.62Zm4.122 5.055V33h4.73V16.194l-4.73.48Zm16.453 6.958v-5.488l4.724-.404v5.636l-4.724.256Zm0 3.955V33h7.196v-5.628l-7.196.216Zm33.56-5.782v-6.53l6.241-.531v6.722l-6.24.34Zm0 4.773V33h9.521v-6.705l-9.52.285ZM29.675 33V7.473l5.677-.794V33h-5.677Zm6.737-5.886V33h8.24v-6.134l-8.24.247ZM88 33v-7.441l-22.235.55v6.89H88ZM66.055 14.103C65.689 6.389 68.86 1.66 75.32.293l.004 7.242c-1.356.568-2.696 1.602-2.382 5.96l-6.887.608Z" fill="#fff"/></mask></svg>
